gama.ui.shared/icons_svg/light/navigator/files/closed.project.svg

<svg height="20.75" viewBox="-515.24 -3503.525 20.75 20.75" width="20.75" xmlns="http://www.w3.org/2000/svg"><g fill="none"><path d="m-514.865-3503.1504h20v20h-20z"/><g fill="#ccc"><path d="m-498.3547-3493.616v-.8c0-.6627-.53725-1.2-1.2-1.2h-4.4c-.88365 0-1.6-.7163-1.6-1.6 0-.442-.35817-.8-.8-.8h-5.2c-.66274 0-1.2.5373-1.2 1.2v8.8c0 .6627.53726 1.2 1.2 1.2h.8c.66275 0 1.2-.5373 1.2-1.2v-4c0-1.1046.89544-2 2-2h8c.45025 0 .86574.1488 1.2.4zm0 1.6c0-.6627-.53725-1.2-1.2-1.2h-8c-.66274 0-1.2.5373-1.2 1.2v4c0 .4503-.1488.8657-.39985 1.2h9.59985c.66275 0 1.2-.5373 1.2-1.2zm-13.2-6.8h5.2c.88366 0 1.6.7164 1.6 1.6 0 .442.3582.8.8.8h4.4c1.1046 0 2 .8954 2 2v6.4c0 1.1046-.8954 2-2 2h-12c-1.10456 0-2-.8954-2-2v-8.8c0-1.1046.89544-2 2-2z"/><path d="m-503.5691-3485.6905c.0734.0858.1824.1401.3041.1401.12173 0 .23075-.0543.3041-.1401zm-7.2959 0v.5401c0 1.1044.89545 2 2 2h12c1.1046 0 2-.8956 2-2v-6.4c0-1.1046-.8954-2-2-2h-.31834v.8h.31834c.66276 0 1.2.5374 1.2 1.2v6.4c0 .6628-.53724 1.2-1.2 1.2h-12c-.6627 0-1.2-.5372-1.2-1.2v-.5401z"/></g></g></svg>

<?xml version="1.0" encoding="UTF-8" standalone="no"?>
<!DOCTYPE svg PUBLIC "-//W3C//DTD SVG 1.1//EN" "http://www.w3.org/Graphics/SVG/1.1/DTD/svg11.dtd">
<svg xmlns="http://www.w3.org/2000/svg" version="1.1" xmlns:xl="http://www.w3.org/1999/xlink" xmlns:dc="http://purl.org/dc/elements/1.1/" viewBox="-515.24 -3503.5254 20.75 20.75" width="20.75" height="20.75">
  <defs/>
  <g id="SOURCES" stroke-opacity="1" stroke-dasharray="none" fill="none" fill-opacity="1" stroke="none">
    <title>SOURCES</title>
    <g id="SOURCES_Light">
      <title>Light</title>
      <g id="Graphic_10537">
        <rect x="-514.865" y="-3503.1504" width="20" height="20" stroke="gray" stroke-opacity="0" stroke-linecap="round" stroke-linejoin="round" stroke-width="0"/>
      </g>
      <g id="Graphic_10534">
        <path d="M -498.3547 -3493.616 L -498.3547 -3494.416 C -498.3547 -3495.0787 -498.89195 -3495.616 -499.5547 -3495.616 L -503.9547 -3495.616 C -504.83835 -3495.616 -505.5547 -3496.3323 -505.5547 -3497.216 C -505.5547 -3497.658 -505.91287 -3498.016 -506.3547 -3498.016 L -511.5547 -3498.016 C -512.21744 -3498.016 -512.7547 -3497.4787 -512.7547 -3496.816 L -512.7547 -3488.016 C -512.7547 -3487.3533 -512.21744 -3486.816 -511.5547 -3486.816 L -510.7547 -3486.816 C -510.09195 -3486.816 -509.5547 -3487.3533 -509.5547 -3488.016 L -509.5547 -3492.016 C -509.5547 -3493.1206 -508.65926 -3494.016 -507.5547 -3494.016 L -499.5547 -3494.016 C -499.10445 -3494.016 -498.68896 -3493.8672 -498.3547 -3493.616 Z M -498.3547 -3492.016 C -498.3547 -3492.6787 -498.89195 -3493.216 -499.5547 -3493.216 L -507.5547 -3493.216 C -508.21744 -3493.216 -508.7547 -3492.6787 -508.7547 -3492.016 L -508.7547 -3488.016 C -508.7547 -3487.5657 -508.9035 -3487.1503 -509.15455 -3486.816 L -499.5547 -3486.816 C -498.89195 -3486.816 -498.3547 -3487.3533 -498.3547 -3488.016 L -498.3547 -3492.016 Z M -511.5547 -3498.816 L -506.3547 -3498.816 C -505.47104 -3498.816 -504.7547 -3498.0996 -504.7547 -3497.216 C -504.7547 -3496.774 -504.3965 -3496.416 -503.9547 -3496.416 L -499.5547 -3496.416 C -498.4501 -3496.416 -497.5547 -3495.5206 -497.5547 -3494.416 L -497.5547 -3488.016 C -497.5547 -3486.9114 -498.4501 -3486.016 -499.5547 -3486.016 L -511.5547 -3486.016 C -512.65926 -3486.016 -513.5547 -3486.9114 -513.5547 -3488.016 L -513.5547 -3496.816 C -513.5547 -3497.9206 -512.65926 -3498.816 -511.5547 -3498.816 Z" fill="#ccc"/>
      </g>
      <g id="Graphic_10533">
        <path d="M -503.5691 -3485.6905 C -503.4957 -3485.6047 -503.3867 -3485.5504 -503.265 -3485.5504 C -503.14327 -3485.5504 -503.03425 -3485.6047 -502.9609 -3485.6905 Z M -510.865 -3485.6905 L -510.865 -3485.1504 C -510.865 -3484.046 -509.96955 -3483.1504 -508.865 -3483.1504 L -496.865 -3483.1504 C -495.7604 -3483.1504 -494.865 -3484.046 -494.865 -3485.1504 L -494.865 -3491.5504 C -494.865 -3492.655 -495.7604 -3493.5504 -496.865 -3493.5504 L -497.18334 -3493.5504 L -497.18334 -3492.7504 L -496.865 -3492.7504 C -496.20224 -3492.7504 -495.665 -3492.213 -495.665 -3491.5504 L -495.665 -3485.1504 C -495.665 -3484.4876 -496.20224 -3483.9504 -496.865 -3483.9504 L -508.865 -3483.9504 C -509.5277 -3483.9504 -510.065 -3484.4876 -510.065 -3485.1504 L -510.065 -3485.6905 Z" fill="#ccc"/>
      </g>
    </g>
  </g>
</svg>
